X:1
T:Title
%%score ( 1 2 ) ( 3 4 )
L:1/8
Q:1/4=95
M:6/8
K:Eb
V:1 treble nm="Drawbar Organ, Soprano"
V:2 treble 
V:3 bass nm="Drawbar Organ, LIft Up Your Voices"
V:4 bass 
V:1
 [EG][EG][EG] [DF][DG][DF] | [DF]3 [B,E]3 | [EB][EB][EB] [DA][DB][FA] | [EG]6 | %4
w: By~Joseph~Lincoln~Hall * * * * *||||
 [Ec][Ec][Ec] [Ec][Ed][Ee] | [Ee]3 [EB]3 | [E=A][EA][EA] [Ec][Fd][Ec] | B6 | G3 c3 | c3 B3 | %10
w: ||||||
 E3 .[CF]3 | G3 F3 | E3 .F3 | B3 A3 | G3 .F3 | G3 F3 | G3 G3 | c3 G3 | =A3 A3 | d3 B3 | B3 .c3 | %21
w: |||||||||||
 [E_G=Be]3- [EGBe]3/2 z/ e | B3[K:bass] D3 | E6- | E3 z3 |] %25
w: ||||
V:2
 x6 | x6 | x6 | x6 | x6 | x6 | x6 | D2 E F3 | EEE [E_G][EG][EG] | [DF][DF][DF] [EG][EG][EG] | %10
 CCC A-[CFA-][CFA] | DDD DDD | CCC CC[CG] | [CF][CF][CF] [CF][CF][CF] | %14
 [=A,CE][A,CE][A,CE] [A,CE][A,CE][A,C] | [B,D][B,D][B,D] [B,D][B,D][B,D] | EEE EEE | =EEE EEE | %18
 [EF][EF][EF] [EF][EF][EF] | [DAB][DAB][DAB] [DA][DA][DA] | [EG][EG][EG] [EG][EG][EGd] | x6 | %22
 [EG][EG][EG][K:bass] B,B,B, | B,B,=B, _B,3- | B,3 z3 |] %25
V:3
 [E,B,][E,B,][E,B,] [B,,A,][B,,B,][B,,A,] | A,3 z3 | [G,B,][G,B,][G,B,] [F,B,][F,B,][D,B,] | %3
 E,-[E,-D][E,-C] [E,B,]3 | A,A,A, A,[A,B,][A,C] | [G,B,]3 [G,B,]3 | %6
 [F,C][F,C][F,C] [F,=A,][F,A,][F,A,] | .B,3 z3 | [E,B,][E,B,][E,B,] [E,A,][E,A,][E,A,] | %9
 [E,A,][E,A,][E,A,] [E,B,][E,B,][E,B,] | [C,G,][C,G,][C,G,] [F,,F,][F,,F,][F,,F,] | %11
 [B,,B,][B,,B,][B,,B,] [=B,,A,][B,,A,][B,,A,] | [C,G,][C,G,][C,G,] [C,G,][C,G,][C,G,] | %13
 [F,,F,][F,,F,][F,,F,] [F,,F,][F,,F,][F,,F,] | [F,,F,][F,,F,][F,,F,] [F,,F,][F,,F,][F,,F,] | %15
 [B,,F,A,][B,,F,A,][B,,F,A,] [B,,F,A,][B,,F,A,][B,,F,A,] | [E,B,][E,B,][E,B,] [_D,B,][D,B,][D,B,] | %17
 [C,G,B,][C,G,B,][C,G,B,] [C,G,B,][C,G,B,][C,G,B,] | [F,C][F,C][F,C] [F,C][F,C][F,C] | %19
 [B,,F,B,][B,,F,B,][B,,F,B,] [B,,F,B,][B,,F,B,][B,,F,B,] | [E,B,][E,B,][E,B,] [E,B,][E,B,][E,B,] | %21
 [=B,,_G,=B,]6 | [B,,B,][B,,B,][B,,B,] [B,,F,A,][B,,F,A,][B,,F,A,] | [E,G,][E,G,][E,A,] [E,G,]3- | %24
 [E,G,]3 z3 |] %25
V:4
 x6 | B,,C,D, [E,G,]3 | x6 | .B,3 z3 | x6 | x6 | x6 | B,,-[B,,-F,][B,,-G,] [B,,A,]3 | x6 | x6 | %10
 x6 | x6 | x6 | x6 | x6 | x6 | x6 | x6 | x6 | x6 | x6 | x6 | x6 | x6 | x6 |] %25

